!!!OTL: ES KAM EIN HERR ZUM SCHLOESSLI
!!!ARE: Europa, Mitteleuropa, Schweiz
!!!SCT: E1916
!!!YEM: Copyright 1995, estate of Helmut Schaffrath.
**kern
*ICvox
*Ivox
*M2/4
*k[f#]
*G:
{8g
=1
16dd
16ee
16dd
16cc
16b
16cc
16b
16a
=2
8g
8b
8d}
{8g
=3
16dd
16ee
16dd
16cc
16b
16cc
16b
16a
=4
8g
8b
8d}
{8d
=5
8g
8g
8a
8a
=6
16b
16dd
16cc
16b
8a}
{8dd
=7
8b
8g
8a
8f#
=8
16g
16b
16a
16f#
8g}
==
!!!AGN: Kinder - Lied, Moral
!!!ONB: ESAC (Essen Associative Code) Database: ERK3
!!!AMT: simple duple
!!!AIN: vox
!!!EED: Helmut Schaffrath
!!!EEV: 1.0
*-
